X: 14
T: Concord Police v.1
P: piffero primo a0014
O: Dan Moylan
%R: jig
F: http://ancients.sudburymuster.org/mus/sng/pdf/concordpC0.pdf
Z: 2020 John Chambers <jc:trillian.mit.edu>
M: 6/8
L: 1/8
K: D
(3(A/B/c/ |\
"^>"d)>Af fed | "^>"e>Ag gfe | afd dcd | Bed cBA |\
"^>"d>Af fed | "^>"e>Ag gfe | "^>"a>fd "^>"bge | ABc d2 :|
|: (c/d/ |\
"^>"e)>aa efg | fed cBA | "^>"e>aa efg | fg^g a2z |\
"^>"e>aa efg | fed cBA | "^>"a>fd "^>"bge | ABc d2 :|


